X:1
T:Title
%%score [ ( 1 2 ) ( 3 4 ) ]
L:1/8
Q:1/4=120
M:4/4
K:G
V:1 treble nm="Midi_74"
V:2 treble 
V:3 bass nm="Midi_74"
V:4 bass 
V:1
 B8 | A4 G4 | F8 || d8 | G4 A4 | G4"^Thomas Purcell\n(1582-1682)" F4 | G8 |] %7
V:2
 D8 | D4 D2 ^C2 | D8 || F8 | E4 E4 | D4 D4 | D8 |] %7
V:3
 B,8 | D4 G,4 | A,8 || B,8 | B,4 C4 | B,4 A,4 | B,8 |] %7
V:4
 G,8 | F,4 E,4 | D,8 || B,,8 | E,4 C,4 | D,4 D,4 | G,,8 |] %7

